icons/fhir_logo.svg

<svg width="48" height="48" viewBox="0 0 48 48" fill="none" xmlns="http://www.w3.org/2000/svg">
<path fill-rule="evenodd" clip-rule="evenodd" d="M18.6652 34.5646C19.0619 31.3925 20.6096 28.0563 23.4818 24.6997C26.5481 21.1162 26.8228 17.2404 26.021 13.7331C25.0154 16.014 23.1789 18.6387 19.9807 21.8477C16.7158 25.8055 16.3374 29.8133 17.2959 33.0806C17.5996 34.1161 18.0372 35.0776 18.5648 35.942C18.5739 35.4898 18.6069 35.0305 18.6652 34.5646ZM20.8561 38.6643C19.9834 35.0909 20.9666 30.7153 25.0014 26C29.5979 20.6283 28.7676 14.7361 27.0121 10.2095C26.3908 8.6074 25.6536 7.17635 25.0001 6C25.0001 6.3913 25.0256 6.79111 25.0522 7.20831C25.1132 8.1645 25.1801 9.212 24.9589 10.4577C24.5367 12.8354 23.065 15.9351 18.5001 20.5C12.4193 27.797 14.8265 35.6935 19.0804 39.7531C20.0732 40.7006 21.1666 41.4391 22.2761 41.9121C21.6305 40.9272 21.143 39.8391 20.8561 38.6643Z" fill="black"/>
<path fill-rule="evenodd" clip-rule="evenodd" d="M24.7809 29.1609C21.2665 32.7979 22.4149 39.472 23.4964 42C27.6809 41.7935 32.6818 40.589 34.4788 33.8458C34.7069 32.9896 34.8834 32.0441 35 31C34.8697 31.2784 34.3137 31.6561 33.6561 32.0168C33.3637 32.1772 33.0512 32.3342 32.7472 32.4777C32.0503 32.8065 31.3976 33.0641 31.1325 33.1272C31.485 32.278 31.7598 31.4456 31.9679 30.6337C33.007 26.5808 32.3866 23.0427 31.5081 20.5202C30.6323 18.0055 29.5001 16.5 29.5001 16.5C29.5001 16.5 29.9588 18.1396 29.4436 20.6976C28.987 22.9647 27.7653 25.9532 24.7809 29.1609ZM30.3776 24.3492C29.5552 26.2604 28.2563 28.3616 26.2451 30.5233L26.2323 30.5371L26.2191 30.5507C24.9676 31.8459 24.4304 33.8213 24.4151 36.0103C24.4051 37.448 24.6232 38.8212 24.896 39.8762C26.5767 39.6671 28.1535 39.2111 29.4552 38.2682C30.4046 37.5804 31.3139 36.5544 31.9948 34.9544C31.8451 35.0052 31.71 35.0456 31.5954 35.0728L27.7822 35.9802L29.2854 32.3602C30.5232 29.3792 30.6818 26.6415 30.3776 24.3492Z" fill="black"/>
<path d="M21.5001 15.5C18.5001 17.3333 11.7183 22 11.3183 28C10.9183 34 14.3183 36.5 16.3183 38.5C15.3183 37 13.3183 33.3 13.3183 28.5C13.3183 23.7 18.8334 17.6667 21.5001 15.5Z" fill="black"/>
</svg>

<svg
  xmlns="http://www.w3.org/2000/svg"
  width="24"
  height="24"
  viewBox="0 0 24 24"
  fill="none"
  stroke="currentColor"
  stroke-width="2"
  stroke-linecap="round"
  stroke-linejoin="round"
>
  <path
    fill-rule="evenodd"
    d="M18.665 34.565c.397-3.172 1.945-6.509 4.817-9.865 3.066-3.584 3.34-7.46 2.539-10.967-1.006 2.281-2.842 4.906-6.04 8.115-3.265 3.957-3.644 7.965-2.685 11.233a12 12 0 0 0 1.269 2.861q.013-.678.1-1.377m2.191 4.1c-.873-3.574.11-7.95 4.145-12.665 4.597-5.372 3.767-11.264 2.011-15.79C26.391 8.607 25.654 7.176 25 6c0 .391.026.791.052 1.208.061.957.128 2.004-.093 3.25-.422 2.377-1.894 5.477-6.459 10.042-6.08 7.297-3.674 15.194.58 19.253.993.948 2.087 1.686 3.196 2.16a10.4 10.4 0 0 1-1.42-3.249"
    clip-rule="evenodd"
  />
  <path
    fill-rule="evenodd"
    d="M24.78 29.16c-3.514 3.638-2.365 10.312-1.284 12.84 4.185-.206 9.186-1.411 10.983-8.154.228-.856.404-1.802.521-2.846-.13.278-.686.656-1.344 1.017-.292.16-.605.317-.909.46-.697.33-1.35.587-1.614.65.352-.849.627-1.681.835-2.493 1.039-4.053.419-7.591-.46-10.114-.876-2.514-2.008-4.02-2.008-4.02s.459 1.64-.056 4.198c-.457 2.267-1.679 5.255-4.663 8.463m5.598-4.81c-.823 1.91-2.122 4.012-4.133 6.173l-.013.014-.013.014c-1.251 1.295-1.789 3.27-1.804 5.46-.01 1.437.208 2.81.481 3.865 1.68-.209 3.258-.665 4.56-1.608.949-.688 1.858-1.714 2.539-3.314a5 5 0 0 1-.4.119l-3.813.907 1.503-3.62c1.238-2.98 1.397-5.718 1.093-8.01"
    clip-rule="evenodd"
  />
  <path d="M21.5 15.5c-3 1.833-9.782 6.5-10.182 12.5s3 8.5 5 10.5c-1-1.5-3-5.2-3-10s5.515-10.833 8.182-13" />
</svg>
